X: 21
T:Hampshire March. BC.21
M:2/4
L:1/8
Q:140
S:Benjamin Cooke MS.circa 1770, F.Kidson Coll.
R:March
O:England
A:Uncertain, probably northern
Z:vmp.John Bagnall
K:G
gg ff | gg d2 | cd/c/ Bc/B/ | A2 G2 |\
gg fg | aa "tr"g2 | fe/d/ ed/^c/| d4 :|!
|:gg dd | e/d/c/B/ c2 | aa gg | "tr" f>e d2 |\
 gg ff | gg dc | BA/G/ AD | G4 :|]
